!!!!SEGMENT: pl-sa--185-a-v-15--005_luna-georgius--missa-in-f-benedictus.krn
!!!cenid: 17xx:530
!!!COM: Luna, Georgius
!!!COM-rismID: pe41010079
!!!CDT:
!!!CNT:
!!!OPR: Missa in F
!!!OTL: Benedictus
!!!OMV: 005
!!!PDT:
!!!AGN: Sacred; Mass
!!!SMS-siglum: PL-SA
!!!SMS-shelfmark: 185/A V 15
!!!SMS-shelfwork: 001-005 M
!!!SMS-variant:
!!!SMS-altvar:
!!!NIFC-rismSourceID: 1001035901
!!!NIFC-rismChildID: 1001035901
!!!NIFC-islandoraID: none
!!!URL-pdf-islandora:
!!!URL-scan: https://bc.bdsandomierz.pl/dlibra/publication/1522/edition/1490/content @EN{Scan in the Sandomierz Diocese Digital Library} @PL{Skany w portalu Cyfrowa Biblioteka Diecezjalna w Sandomierzu}
!!!IIIF:
!!!ONB-nifc: UWAGA: części Mszy: Kyrie, Gloria, Patrem, Sanctus, Benedictus, Agnus Dei
!!!AIN: 1 bass 2 empty 1 organ 2 violn 2 vox
!!!key:
**kern	**fba	**dynam	**kern	**dynam	**kern	**dynam	**kern	**kern	**kern	**text	**kern	**dynam	**kern
*part8	*part8	*part8	*part7	*part7	*part6	*part6	*part5	*part4	*part3	*part3	*part2	*part2	*part1
*staff8	*	*	*staff7	*	*staff6	*	*staff5	*staff4	*staff3	*staff3	*staff2	*	*staff1
*Iorgan	*	*	*Ivioln	*	*Ivioln	*	*Ibass	*Ivox	*Ivox	*	*Iempty	*	*Iempty
*I"Organo	*	*	*I"Violino Secundo.	*	*I"Violino Primo	*	*I"Basso	*I"Canto Secundo	*I"Canto	*	*I"Cornu Secundo ex F.	*	*I"Cornu Primo ex F.
*I'org	*	*	*I'vl II	*	*I'vl I	*	*I'B	*I'C II	*I'C I	*	*I'cor II	*	*I'cor I
*clefF4	*	*	*clefG2	*	*clefG2	*	*clefF4	*clefC1	*clefC1	*	*clefG2	*	*clefG2
*	*	*	*	*	*	*	*	*	*	*	*ITrd4c7	*	*ITrd4c7
*k[b-]	*	*	*k[b-]	*	*k[b-]	*	*k[b-]	*k[b-]	*k[b-]	*	*k[b-]	*	*k[b-]
*F:	*	*	*F:	*	*F:	*	*F:	*F:	*F:	*	*F:	*	*F:
*M3/8	*	*	*M3/8	*	*M3/8	*	*M3/8	*M3/8	*M3/8	*	*M3/8	*	*M3/8
=1	=1	=1	=1	=1	=1	=1	=1	=1	=1	=1	=1	=1	=1
!LO:TX:rj:i:a:B:t=Andante	!	!	!LO:TX:rj:i:a:B:t=andante	!	!LO:TX:rj:i:a:B:t=andante	!	!LO:TX:a:B:t=Benedic. Tacet	!LO:TX:a:B:t=Benedictus Tacet ||	!LO:TX:rj:i:a:B:t=Andante	!	!LO:TX:rj:i:a:B:t=Andante	!	!LO:TX:rj:i:a:B:t=Andante
!	!	!	!	!	!	!	!	!	!LO:N:vis=00	!	!	!	!
16r	.	.	4.a/	.	4.cc\	.	4.ryy	4.ryy	1.r	.	4.a\	.	4.cc\
16FF/LL	.	.	.	.	.	.	.	.	.	.	.	.	.
16AA/	.	.	.	.	.	.	.	.	.	.	.	.	.
16C/	.	.	.	.	.	.	.	.	.	.	.	.	.
16F/	.	.	.	.	.	.	.	.	.	.	.	.	.
16A/JJ	.	.	.	.	.	.	.	.	.	.	.	.	.
=2	=2	=2	=2	=2	=2	=2	=2	=2	=2	=2	=2	=2	=2
!LO:TX:a:t=P:problem=mixed beam	!	!	!	!	!	!	!	!	!	!	!	!	!
.	.	.	.	.	8qqcc/	.	.	.	.	.	.	.	.
16c\LL	7	.	4.g/	.	4.b-\	.	4.ryy	4.ryy	.	.	4.g\	.	4.b-\
16CC/	.	.	.	.	.	.	.	.	.	.	.	.	.
16EE/	.	.	.	.	.	.	.	.	.	.	.	.	.
16GG/	.	.	.	.	.	.	.	.	.	.	.	.	.
16C/	.	.	.	.	.	.	.	.	.	.	.	.	.
16E/JJ	.	.	.	.	.	.	.	.	.	.	.	.	.
=3	=3	=3	=3	=3	=3	=3	=3	=3	=3	=3	=3	=3	=3
!	!	!	!LO:TX:a:t=P:problem=mixed beam	!	!	!	!	!	!	!	!	!	!
4F\	3	.	(8f/L	.	(8a\L	.	4.ryy	4.ryy	.	.	8f\	.	8a\
.	.	.	8dd\	.	8ff\	.	.	.	.	.	8r	.	8r
8r	.	.	8cc\J)	.	8ee\J)	.	.	.	.	.	8r	.	8r
=4	=4	=4	=4	=4	=4	=4	=4	=4	=4	=4	=4	=4	=4
!LO:TX:a:t=P:problem=mixed beam	!	!	!	!	!	!	!	!	!	!	!	!	!
8B-\L	.	.	(8b-/	.	8dd\	.	4.ryy	4.ryy	.	.	4.r	.	4.r
.	.	.	.	.	8qqcc/	.	.	.	.	.	.	.	.
8c\	6 4	.	4g/)	.	4b-\	.	.	.	.	.	.	.	.
8C/J	5 3	.	.	.	.	.	.	.	.	.	.	.	.
=5	=5	=5	=5	=5	=5	=5	=5	=5	=5	=5	=5	=5	=5
*	*	*	*Xtuplet	*	*Xtuplet	*	*	*	*	*	*	*	*
!LO:TX:a:t=P:problem=mixed beam	!	!	!LO:TUP:a:problem=klamra łukowa bez numeru&colon;global	!	!LO:TUP:a:problem=klamra łukowa bez numeru&colon;global	!	!	!	!	!	!	!	!
!	!	!	!LO:TUP:a:problem=klamra łukowa bez numeru&colon;global	!	!	!	!	!	!LO:N:vis=00	!	!	!	!
16F\LL	3_	.	24f/LL	.	24a\LL	.	4.ryy	4.ryy	1.r	.	16r	.	16r
.	.	.	24g/	.	24b-\	.	.	.	.	.	.	.	.
16FF/	.	.	.	.	.	.	.	.	.	.	16f\	.	16a\
.	x	.	24a/JJ	.	24cc\JJ	.	.	.	.	.	.	.	.
!	!	!	!	!	!	!	!	!	!	!	!	!	!LO:SIC:o:s=:v:niejednoznaczny zapis łuku
16AA/	.	.	4a/	.	4cc\	.	.	.	.	.	16a\LL	.	(16cc\LL
!	!	!	!	!	!	!	!	!	!	!	!LO:SIC:o:s=:v:niejednoznaczny zapis łuku	!	!
16C/	.	.	.	.	.	.	.	.	.	.	(16f\	.	16a\
16F/	.	.	.	.	.	.	.	.	.	.	16a\	.	16cc\)
16A/JJ	.	.	.	.	.	.	.	.	.	.	16f\JJ)	.	16a\JJ
=6	=6	=6	=6	=6	=6	=6	=6	=6	=6	=6	=6	=6	=6
!LO:TX:a:t=P:problem=mixed beam	!	!	!	!	!	!	!	!	!	!	!	!	!
16c\LL	7_	.	24e/LL	.	24g/LL	.	4.ryy	4.ryy	.	.	16r	.	16r
.	.	.	24f/	.	24a/	.	.	.	.	.	.	.	.
16CC/	.	.	.	.	.	.	.	.	.	.	16c/	.	16g\
.	.	.	24g/JJ	.	24b-/JJ	.	.	.	.	.	.	.	.
!	!	!	!	!	!LO:SIC:o:s=:v:ozdobnik t [przyjęto trillo]&colon;global	!	!	!	!	!	!	!	!
!	!	!	!	!	!LO:TX:a:B:t=t	!	!	!	!	!	!	!	!
16EE/	x	.	4g/	.	4b-/	.	.	.	.	.	16g\LL	.	16b-\LL
!	!	!	!	!	!	!	!	!	!	!	!LO:SIC:o:s=:v:niejednoznaczny zapis łuku	!	!LO:SIC:o:s=:v:niejednoznaczny zapis łuku
16GG/	.	.	.	.	.	.	.	.	.	.	(16c\	.	(16g\
16C/	.	.	.	.	.	.	.	.	.	.	16g\)	.	16b-\)
16E/JJ	.	.	.	.	.	.	.	.	.	.	16c\JJ	.	16g\JJ
=7	=7	=7	=7	=7	=7	=7	=7	=7	=7	=7	=7	=7	=7
!LO:TX:a:t=P:problem=mixed beam	!	!	!	!	!	!	!	!	!	!	!	!	!
8F\L	.	.	16.f/LL	.	16.a\LL	.	4.ryy	4.ryy	.	.	8f\	.	8a\
.	.	.	32a/JJk	.	32ff\JJk	.	.	.	.	.	.	.	.
8r	.	.	24a/LL	.	24ff\LL	.	.	.	.	.	8r	.	8r
.	.	.	24g/	.	24ee\	.	.	.	.	.	.	.	.
.	.	.	24b-/JJ	.	24dd\JJ	.	.	.	.	.	.	.	.
8FF/J	.	.	24a/LL	.	24cc\LL	.	.	.	.	.	8f\	.	8a\
.	.	.	24g/	.	24b-\	.	.	.	.	.	.	.	.
.	.	.	24f/JJ	.	24a\JJ	.	.	.	.	.	.	.	.
=8	=8	=8	=8	=8	=8	=8	=8	=8	=8	=8	=8	=8	=8
!LO:TX:a:t=P:problem=mixed beam	!	!	!	!	!	!	!	!	!	!	!	!	!
.	.	.	.	.	8qqb-/	.	.	.	.	.	.	.	.
16C/LL	6 4	.	8f/L	.	8a/L	.	4.ryy	4.ryy	.	.	8f\L	.	8a\L
16c\	- 3	.	.	.	.	.	.	.	.	.	.	.	.
16B-\	.	.	8e/J	.	8g/J	.	.	.	.	.	8c\J	.	8g\J
16A\	.	.	.	.	.	.	.	.	.	.	.	.	.
16G\	.	.	8r	.	8r	.	.	.	.	.	8r	.	8r
16G\JJ	.	.	.	.	.	.	.	.	.	.	.	.	.
=9	=9	=9	=9	=9	=9	=9	=9	=9	=9	=9	=9	=9	=9
!	!	!	!	!	!	!	!	!	!LO:N:vis=00	!	!LO:N:vis=00	!	!LO:N:vis=00
8F#X\L	-7	.	8a/L	.	16r	.	4.ryy	4.ryy	1.r	.	1.r	.	1.r
.	.	.	.	.	16ee-X\	.	.	.	.	.	.	.	.
8G\	3	.	8b-/	.	24dd\LL	.	.	.	.	.	.	.	.
.	.	.	.	.	24cc\	.	.	.	.	.	.	.	.
.	.	.	.	.	24b-\JJ	.	.	.	.	.	.	.	.
8A\J	6	.	8cc/J	.	24a/LL	.	.	.	.	.	.	.	.
.	.	.	.	.	24g/	.	.	.	.	.	.	.	.
.	.	.	.	.	24f#X/JJ	.	.	.	.	.	.	.	.
!LO:LB:g=original	!	!	!	!	!LO:LB:g=original	!	!	!	!	!	!	!	!
=10	=10	=10	=10	=10	=10	=10	=10	=10	=10	=10	=10	=10	=10
!	!	!	!LO:SIC:o:s=:v:niejednoznaczny zapis łuku	!	!	!	!	!	!	!	!	!	!
!	!	!	!	!LO:DY:a	!LO:TX:a:t=P:problem=mixed beam	!	!	!	!	!	!	!	!
8B-\L	6	.	(8dd\L	p	16.g/LL	.	4.ryy	4.ryy	.	.	.	.	.
!	!	!	!	!	!	!LO:DY:a	!	!	!	!	!	!	!
.	.	.	.	.	32ff#X\JJk	p	.	.	.	.	.	.	.
8A\	6	.	8cc\	.	8ff#\L	.	.	.	.	.	.	.	.
8G\J	.	.	8b-\J)	.	8gg\J	.	.	.	.	.	.	.	.
=11	=11	=11	=11	=11	=11	=11	=11	=11	=11	=11	=11	=11	=11
!	!	!	!	!LO:DY:a	!	!	!	!	!	!	!	!	!
8E\L	7	.	8g/L	f	16r	.	4.ryy	4.ryy	.	.	.	.	.
.	.	.	.	.	16dd\	.	.	.	.	.	.	.	.
8Fn\	5	.	8a/	.	24cc\LL	.	.	.	.	.	.	.	.
.	.	.	.	.	24b-\	.	.	.	.	.	.	.	.
.	.	.	.	.	24a\JJ	.	.	.	.	.	.	.	.
8G\J	6	.	8b-/J	.	24g/LL	.	.	.	.	.	.	.	.
.	.	.	.	.	24f/	.	.	.	.	.	.	.	.
.	.	.	.	.	24en/JJ	.	.	.	.	.	.	.	.
=12	=12	=12	=12	=12	=12	=12	=12	=12	=12	=12	=12	=12	=12
!	!	!	!LO:SIC:o:s=:v:niejednoznaczny zapis łuku	!LO:DY:a	!LO:TX:a:t=P:problem=mixed beam	!	!	!	!	!	!	!	!
8A\L	6	.	(8cc\L	p	16.f/LL	.	4.ryy	4.ryy	.	.	.	.	.
.	.	.	.	.	32ee\JJk	.	.	.	.	.	.	.	.
8G\	6	.	8b-\	.	(8ee\L	.	.	.	.	.	.	.	.
8F\J	.	.	8a\J)	.	8ff\J)	.	.	.	.	.	.	.	.
!	!	!	!LO:LB:g=original	!	!	!	!	!	!	!	!	!	!
=13	=13	=13	=13	=13	=13	=13	=13	=13	=13	=13	=13	=13	=13
*	*	*	*	*	*	*	*	*	*	*	*Xtuplet	*	*
!	!	!	!	!	!	!LO:DY:a	!	!	!LO:N:vis=00	!	!LO:TUP:a:problem=klamra łukowa bez numeru&colon;global	!	!
16r	.	.	24e/LL	.	24g/LL	p	4.ryy	4.ryy	1.r	.	24c\LL	.	16g\LL
.	.	.	24f/	.	24a/	.	.	.	.	.	24f\	.	.
16CC/LL	7_	.	.	.	.	.	.	.	.	.	.	.	(16a\
.	.	.	24g/JJ	.	24b-/JJ	.	.	.	.	.	24g\JJ	.	.
!	!	!	!	!	!LO:TX:a:B:t=t	!	!	!	!	!	!	!	!
16EE/	.	.	4g/	.	4b-/	.	.	.	.	.	8g\	.	16b-\J)
!	!	!	!	!	!	!	!	!	!	!	!	!	!LO:SIC:o:s=:v:ozdobnik t [przyjęto trillo]&colon;global
!	!	!	!	!	!	!	!	!	!	!	!	!	!LO:TX:a:B:t=t
16GG/	x	.	.	.	.	.	.	.	.	.	.	.	8.b-\J
16C/	.	.	.	.	.	.	.	.	.	.	8r	.	.
16E/JJ	.	.	.	.	.	.	.	.	.	.	.	.	.
=14	=14	=14	=14	=14	=14	=14	=14	=14	=14	=14	=14	=14	=14
!	!	!	!	!LO:DY:a	!LO:TX:a:t=P:problem=mixed beam	!	!	!	!	!	!	!	!
4F\	3	.	16f/LL	p	16a/LL	.	4.ryy	4.ryy	.	.	8f\	.	8a\
.	.	.	16cc/	.	16aa\	.	.	.	.	.	.	.	.
!	!	!	!LO:SIC:o:s=:v:niejednoznaczny zapis łuku	!	!	!	!	!	!	!	!	!	!
.	.	.	(16b-/	.	16gg\	.	.	.	.	.	8r	.	8r
.	.	.	16a/)	.	16ff\	.	.	.	.	.	.	.	.
8r	.	.	16g/	.	16ee\	.	.	.	.	.	8r	.	8r
.	.	.	16a/JJ	.	16ff\JJ	.	.	.	.	.	.	.	.
=15	=15	=15	=15	=15	=15	=15	=15	=15	=15	=15	=15	=15	=15
!	!	!	!	!	!LO:TUP:a:problem=klamra łukowa bez numeru i łuku	!	!	!	!	!	!	!	!
!	!	!	!	!LO:DY:a	!	!	!	!	!	!	!	!	!
16r	.	.	16b-/LL	f	24gg\LL	.	4.ryy	4.ryy	.	.	8c/	.	8g\
!	!	!	!	!	!	!LO:DY:a	!	!	!	!	!	!	!
.	.	.	.	.	24ee\	f	.	.	.	.	.	.	.
16C\LL	7 3	.	16g/	.	.	.	.	.	.	.	.	.	.
.	.	.	.	.	24b-\JJ	.	.	.	.	.	.	.	.
!	!	!	!LO:SIC:o:s=:v:niejednoznaczny zapis łuku	!	!LO:TX:a:B:t=t	!	!	!	!	!	!	!	!
16D\	x 3	.	(16f/	.	4b-\	.	.	.	.	.	8r	.	8r
16C\	x 3	.	16g/)	.	.	.	.	.	.	.	.	.	.
16D\	7 3	.	16f/	.	.	.	.	.	.	.	8r	.	8r
16E\JJ	x 3	.	16g/JJ	.	.	.	.	.	.	.	.	.	.
!	!	!	!	!	!	!	!	!	!	!	!LO:LB:g=original	!	!
=16	=16	=16	=16	=16	=16	=16	=16	=16	=16	=16	=16	=16	=16
!	!	!	!	!	!	!LO:DY:a	!	!	!	!	!	!	!LO:SIC:s=:v:8ee
4F\	.	.	16c/LL	.	16a/LL	p	4.ryy	4.ryy	.	.	8F/	.	8g\
!	!	!	!LO:SIC:o:s=:v:niejednoznaczny zapis łuku	!	!	!	!	!	!	!	!	!	!
.	.	.	(16c/	.	16a/	.	.	.	.	.	.	.	.
!	!	!	!	!	!LO:SIC:o:s=:v:niejednoznaczny zapis łuku	!	!	!	!	!	!	!	!
.	.	.	16B-/	.	(16g/	.	.	.	.	.	8r	.	8r
.	.	.	16A/)	.	16f/)	.	.	.	.	.	.	.	.
8r	.	.	16G/	.	16e/	.	.	.	.	.	8r	.	8r
.	.	.	16A/JJ	.	16f/JJ	.	.	.	.	.	.	.	.
!	!	!	!	!	!	!	!	!	!	!	!	!	!LO:PB:g=original
=17	=17	=17	=17	=17	=17	=17	=17	=17	=17	=17	=17	=17	=17
!	!	!	!	!LO:DY:a	!	!LO:DY:a	!	!	!LO:N:vis=00	!	!	!	!
8B-\L	.	.	8dd\	f	8dd\	f	4.ryy	4.ryy	1.r	.	8f\	.	8f\
!	!	!	!	!	!LO:TUP:a:problem=klamra łukowa bez numeru i łuku	!	!	!	!	!	!	!	!
8B-\	.	.	24bb-\LL	.	24bb-\LL	.	.	.	.	.	8r	.	8r
.	.	.	24aa\	.	24aa\	.	.	.	.	.	.	.	.
.	.	.	24gg\JJ	.	24gg\JJ	.	.	.	.	.	.	.	.
8B-\J	.	.	24ff\LL	.	24ff\LL	.	.	.	.	.	8r	.	8r
.	.	.	24ee\	.	24ee\	.	.	.	.	.	.	.	.
.	.	.	24dd\JJ	.	24dd\JJ	.	.	.	.	.	.	.	.
=18	=18	=18	=18	=18	=18	=18	=18	=18	=18	=18	=18	=18	=18
8A\L	6	.	24cc\LL	.	24cc\LL	.	4.ryy	4.ryy	.	.	8r	.	8r
.	.	.	24dd\	.	24dd\	.	.	.	.	.	.	.	.
.	.	.	24ee\JJ	.	24ee\JJ	.	.	.	.	.	.	.	.
!	!	!	!	!	!LO:LB:g=original	!	!	!	!	!	!	!	!
8A\	6	.	24ff\LL	.	24ff\LL	.	.	.	.	.	8r	.	8r
.	.	.	24gg\	.	24gg\	.	.	.	.	.	.	.	.
.	.	.	24aa\JJ	.	24aa\JJ	.	.	.	.	.	.	.	.
.	.	.	.	.	8qqcc/	.	.	.	.	.	.	.	.
8G\J	.	.	8b-\	.	8b-\	.	.	.	.	.	8g\	.	8b-\
=19	=19	=19	=19	=19	=19	=19	=19	=19	=19	=19	=19	=19	=19
!LO:TX:a:t=P:problem=mixed beam	!	!	!	!	!	!	!	!	!	!	!	!	!
8F\L	.	.	24a/LL	.	24a/LL	.	4.ryy	4.ryy	.	.	8f\	.	8a\
.	.	.	24g/	.	24g/	.	.	.	.	.	.	.	.
.	.	.	24f/JJ	.	24f/JJ	.	.	.	.	.	.	.	.
!	!	!	!	!	!LO:TX:a:B:t=t	!	!	!	!	!	!	!	!
8c\	4	.	4g/	.	4g/	.	.	.	.	.	4c/	.	4g\
.	3	.	.	.	.	.	.	.	.	.	.	.	.
8C/J	.	.	.	.	.	.	.	.	.	.	.	.	.
=20	=20	=20	=20	=20	=20	=20	=20	=20	=20	=20	=20	=20	=20
!	!	!	!LO:TX:a:t=P:problem=mixed beam	!	!LO:TX:a:t=P:problem=mixed beam	!	!	!	!	!	!	!	!
4F\	.	.	16f/LL	.	16.f/LL	.	4.ryy	4.ryy	.	.	8A/	.	8f\
.	.	.	16aa\JJ	.	.	.	.	.	.	.	.	.	.
.	.	.	.	.	32aa\JJk	.	.	.	.	.	.	.	.
.	.	.	24aa\LL	.	24aa\LL	.	.	.	.	.	4r	.	8r
.	.	.	24gg\	.	24gg\	.	.	.	.	.	.	.	.
.	.	.	24ff\JJ	.	24ff\JJ	.	.	.	.	.	.	.	.
8r	.	.	24ee\LL	.	24ee\LL	.	.	.	.	.	.	.	8r
.	.	.	24dd\	.	24dd\	.	.	.	.	.	.	.	.
.	.	.	24cc\JJ	.	24cc\JJ	.	.	.	.	.	.	.	.
!	!	!	!LO:LB:g=original	!	!	!	!	!	!	!	!	!	!
=21	=21	=21	=21	=21	=21	=21	=21	=21	=21	=21	=21	=21	=21
.	.	.	16qqb-/LL	.	16qqb-/LL	.	.	.	.	.	.	.	.
!LO:TX:a:t=P:problem=mixed beam	!	!	!	!	!	!	!	!	!	!	!	!	!
.	.	.	16qqcc/JJ	.	16qqcc/JJ	.	.	.	.	.	.	.	.
!	!	!	!	!	!	!	!	!	!LO:N:vis=00	!	!	!	!
8B-\L	.	.	8dd\	.	8dd\	.	4.ryy	4.ryy	1.r	.	8b-\	.	8dd\
!	!	!	!	!	!	!	!	!	!	!	!LO:SIC:o:s=:v:ozdobnik t [przyjęto trillo]&colon;global	!	!
!	!	!	!	!	!	!	!	!	!	!	!LO:TX:a:B:t=t	!	!LO:TX:a:B:t=t
.	.	.	8qqcc/	.	8qqcc/	.	.	.	.	.	.	.	.
8c\	6 4	.	4b-\	.	4b-\	.	.	.	.	.	4g\	.	4b-\
8C\J	5 3	.	.	.	.	.	.	.	.	.	.	.	.
!LO:LB:g=original	!	!	!	!	!	!	!	!	!	!	!	!	!
=22	=22	=22	=22	=22	=22	=22	=22	=22	=22	=22	=22	=22	=22
!	!	!	!LO:TX:a:t=P:problem=mixed beam	!	!LO:TX:a:t=P:problem=mixed beam	!	!	!	!	!	!	!	!
8D/	.	.	16.f/LL	.	16.f/LL	.	4.ryy	4.ryy	.	.	8f\	.	8a\
.	.	.	32aa\JJk	.	32aa\JJk	.	.	.	.	.	.	.	.
8r	.	.	24aa\LL	.	24aa\LL	.	.	.	.	.	8r	.	8r
.	.	.	24gg\	.	24gg\	.	.	.	.	.	.	.	.
.	.	.	24ff\JJ	.	24ff\JJ	.	.	.	.	.	.	.	.
8r	.	.	24ee\LL	.	24ee\LL	.	.	.	.	.	8r	.	8r
.	.	.	24dd\	.	24dd\	.	.	.	.	.	.	.	.
.	.	.	24cc\JJ	.	24cc\JJ	.	.	.	.	.	.	.	.
=23	=23	=23	=23	=23	=23	=23	=23	=23	=23	=23	=23	=23	=23
!	!	!	!	!	!	!	!	!	!	!	!LO:SIC:o:s=:v:niejednoznaczny zapis łuku	!	!
8BB-/L	6	.	8b-/	.	8b-/	.	4.ryy	4.ryy	.	.	(8g\L	.	8b-\
!	!	!	!	!	!	!	!	!	!	!	!	!	!LO:TX:a:B:t=t
.	.	.	8qqa/	.	8qqa/	.	.	.	.	.	.	.	.
8C/	6 4	.	4g/	.	4g/	.	.	.	.	.	8f\	.	4g\
8CC/J	5 3	.	.	.	.	.	.	.	.	.	8c\J)	.	.
=24	=24	=24	=24	=24	=24	=24	=24	=24	=24	=24	=24	=24	=24
!	!	!	!	!	!	!	!	!	!LO:SIC:o:s=:v:kreska taktowa pojedyncza	!	!	!	!
4.FF;/	.	.	16.f/LL	.	16.f/LL	.	4.ryy	4.ryy	.	.	4A/	.	8f\
.	.	.	32c/JJk	.	32c/JJk	.	.	.	.	.	.	.	.
!	!	!	!LO:SIC:o:s=:v:kreska taktowa podwójna	!	!LO:SIC:o:s=:v:kreska taktowa podwójna	!	!	!	!	!	!	!	!
.	.	.	.	.	8qqB-/	.	.	.	.	.	.	.	.
.	.	.	4A;/	.	4A;/	.	.	.	.	.	.	.	8r
!	!	!	!	!	!	!	!	!	!	!	!LO:SIC:o:s=:v:kreska taktowa pojedyncza	!	!LO:SIC:o:s=:v:kreska taktowa pojedyncza
.	.	.	.	.	.	.	.	.	.	.	8r	.	8r
=25||	=25||	=25||	=25||	=25||	=25||	=25||	=25||	=25||	=25||	=25||	=25||	=25||	=25||
!	!	!LO:DY:a	!	!LO:DY:a	!	!LO:DY:a	!	!	!	!	!LO:N:vis=00	!	!LO:N:vis=00
16r	.	p	4.a/	p	4.cc\	p	4.ryy	4.ryy	4.cc\	Be-	1.r	.	1.r
16FF/LL	.	.	.	.	.	.	.	.	.	.	.	.	.
16AA/	.	.	.	.	.	.	.	.	.	.	.	.	.
16C/	.	.	.	.	.	.	.	.	.	.	.	.	.
16F/	.	.	.	.	.	.	.	.	.	.	.	.	.
16A/JJ	.	.	.	.	.	.	.	.	.	.	.	.	.
=26	=26	=26	=26	=26	=26	=26	=26	=26	=26	=26	=26	=26	=26
!LO:TX:a:t=P:problem=mixed beam	!	!	!	!	!	!	!	!	!	!	!	!	!
.	.	.	.	.	.	.	.	.	8qqcc/	.	.	.	.
16c\LL	.	.	4.g/	.	4.b-\	.	4.ryy	4.ryy	4.b-\	-ne-	.	.	.
16CC/	.	.	.	.	.	.	.	.	.	.	.	.	.
16EE/	.	.	.	.	.	.	.	.	.	.	.	.	.
16GG/	.	.	.	.	.	.	.	.	.	.	.	.	.
16C/	.	.	.	.	.	.	.	.	.	.	.	.	.
16E/JJ	.	.	.	.	.	.	.	.	.	.	.	.	.
=27	=27	=27	=27	=27	=27	=27	=27	=27	=27	=27	=27	=27	=27
!	!	!	!LO:TX:a:t=P:problem=mixed beam	!	!	!	!	!	!	!	!	!	!
4F\	.	.	(8f/L	.	8a\L	.	4.ryy	4.ryy	(8a\L	-dic-	.	.	.
!	!	!	!	!	!LO:SIC:o:s=:v:niejednoznaczny zapis łuku	!	!	!	!	!	!	!	!
.	.	.	8dd\	.	(8ff\	.	.	.	8ff\J)	.	.	.	.
8r	.	.	8cc\J)	.	8ee\J)	.	.	.	8ee\	-tus	.	.	.
!	!	!	!	!	!LO:LB:g=original	!	!	!	!	!	!	!	!
=28	=28	=28	=28	=28	=28	=28	=28	=28	=28	=28	=28	=28	=28
!LO:TX:a:t=P:problem=mixed beam	!	!	!	!	!LO:SIC:o:s=:v:pogrubione 3 pole	!	!	!	!	!	!	!	!
8B-\L	3	.	8b-/	.	8dd\	.	4.ryy	4.ryy	8dd\	qui	.	.	.
.	.	.	.	.	8qqcc/	.	.	.	8qqcc/	.	.	.	.
8c\	6 4	.	4g/	.	4b-\	.	.	.	4b-\	ve-	.	.	.
8C/J	5 3	.	.	.	.	.	.	.	.	.	.	.	.
=29	=29	=29	=29	=29	=29	=29	=29	=29	=29	=29	=29	=29	=29
!LO:TX:a:t=P:problem=mixed beam	!	!	!	!	!	!	!	!	!	!	!LO:N:vis=0	!	!LO:N:vis=0
16F\LL	3_	.	24f/LL	.	24a\LL	.	4.ryy	4.ryy	(16a\LL	.	2.r	.	2.r
.	.	.	24g/	.	24b-\	.	.	.	.	.	.	.	.
16FF/	.	.	.	.	.	.	.	.	16b-\JJ)	.	.	.	.
.	.	.	24a/JJ	.	24cc\JJ	.	.	.	.	.	.	.	.
!	!	!	!	!	!LO:TX:a:B:t=t	!	!	!	!	!	!	!	!
16AA/	.	.	4a/	.	4cc\	.	.	.	8cc\	-nit	.	.	.
16C/	.	.	.	.	.	.	.	.	.	.	.	.	.
16F/	.	.	.	.	.	.	.	.	16r	.	.	.	.
16A/JJ	.	.	.	.	.	.	.	.	16cc\	qui	.	.	.
=30	=30	=30	=30	=30	=30	=30	=30	=30	=30	=30	=30	=30	=30
!LO:TX:a:t=P:problem=mixed beam	!	!	!	!	!	!	!	!	!	!	!	!	!
16c\LL	7	.	24e/LL	.	24g/LL	.	4.ryy	4.ryy	(16g\LL	ve-	.	.	.
.	.	.	24f/	.	24a/	.	.	.	.	.	.	.	.
16CC/	.	.	.	.	.	.	.	.	16a\JJ)	.	.	.	.
.	.	.	24g/JJ	.	24b-/JJ	.	.	.	.	.	.	.	.
!	!	!	!	!	!LO:TX:a:B:t=t	!	!	!	!	!	!	!	!
16EE/	.	.	4g/	.	4b-/	.	.	.	8b-\	-nit	.	.	.
16GG/	.	.	.	.	.	.	.	.	.	.	.	.	.
16C/	.	.	.	.	.	.	.	.	16r	.	.	.	.
16E/JJ	.	.	.	.	.	.	.	.	16b-\	in	.	.	.
=31	=31	=31	=31	=31	=31	=31	=31	=31	=31	=31	=31	=31	=31
4F\	.	.	16.f/LL	.	8a/	.	4.ryy	4.ryy	8a\	no-	4.r	.	4.r
.	.	.	32a/JJk	.	.	.	.	.	.	.	.	.	.
*	*	*	*	*	*	*	*	*	*Xtuplet	*	*	*	*
!	!	!	!	!	!	!	!	!	!LO:TUP:a:problem=klamra łukowa bez numeru&colon;global	!	!	!	!
.	.	.	24a/LL	.	24ff\LL	.	.	.	24ff\LL	.	.	.	.
.	.	.	24g/	.	24ee\	.	.	.	24ee\	.	.	.	.
.	.	.	24b-/JJ	.	24dd\JJ	.	.	.	24dd\JJ	.	.	.	.
!	!	!	!	!	!	!	!	!	!LO:TUP:a:problem=klamra łukowa bez numeru i łuku	!	!	!	!
8r	.	.	24a/LL	.	24cc\LL	.	.	.	24cc\LL	-mi-	.	.	.
.	.	.	24g/	.	24b-\	.	.	.	24b-\JJ	.	.	.	.
.	.	.	24f/JJ	.	24a\JJ	.	.	.	24a\	-ne	.	.	.
!	!	!	!LO:LB:g=original	!	!	!	!	!	!LO:LB:g=original	!	!	!	!
=32	=32	=32	=32	=32	=32	=32	=32	=32	=32	=32	=32	=32	=32
.	.	.	.	.	8qqb-/	.	.	.	.	.	.	.	.
8c\	6 4	.	8f/L	.	8a/L	.	4.ryy	4.ryy	16.a\	Do-	8r	.	8r
.	.	.	.	.	.	.	.	.	32g/	-mi-	.	.	.
!LO:TX:a:t=P:problem=mixed beam	!	!	!	!	!	!	!	!	!	!	!	!	!
16C/LL	5_ 3_	.	8e/J	.	8g/J	.	.	.	8g/	-ni	16r	.	16r
16c\	.	.	.	.	.	.	.	.	.	.	16c/LL	.	16g\LL
16G\	.	.	8r	.	8r	.	.	.	8r	.	16c/	.	16g\
16E\JJ	.	.	.	.	.	.	.	.	.	.	16c/JJ	.	16g\JJ
!LO:LB:g=original	!	!	!	!	!	!	!	!	!	!	!	!	!
=33	=33	=33	=33	=33	=33	=33	=33	=33	=33	=33	=33	=33	=33
8C/L	.	.	8g/L	.	8ee\L	.	4.ryy	4.ryy	8cc\	qui	8c/	.	8g\
8C/	.	.	8g/	.	8ee\	.	.	.	24ee\LL	ve-	8r	.	8r
.	.	.	.	.	.	.	.	.	24dd\	.	.	.	.
.	.	.	.	.	.	.	.	.	24cc\JJ	.	.	.	.
8C/J	.	.	8g/J	.	8ee\J	.	.	.	8g\	-nit	8r	.	8r
=34	=34	=34	=34	=34	=34	=34	=34	=34	=34	=34	=34	=34	=34
8BBn/L	6	.	8g/L	.	8ff\L	.	4.ryy	4.ryy	8dd\	qui	8g\	.	8g\
8BB/	.	.	8g/	.	8ff\	.	.	.	24ff\LL	ve-	8r	.	8r
.	.	.	.	.	.	.	.	.	24ee\	.	.	.	.
.	.	.	.	.	.	.	.	.	24dd\JJ	.	.	.	.
8BB/J	.	.	8g/J	.	8ff\J	.	.	.	8g\	-nit	8r	.	8r
=35	=35	=35	=35	=35	=35	=35	=35	=35	=35	=35	=35	=35	=35
!	!	!	!	!	!	!	!	!	!	!	!LO:N:vis=0	!	!LO:N:vis=0
4C/	.	.	16g/LL	.	16ee\LL	.	4.ryy	4.ryy	(16ee\LL	in	2.r	.	2.r
!	!	!	!LO:SIC:o:s=:v:niejednoznaczny zapis łuku	!	!	!	!	!	!	!	!	!	!
.	.	.	(16f/	.	16dd\	.	.	.	16dd\JJ)	.	.	.	.
!	!	!	!	!	!LO:SIC:o:s=:v:niejednoznaczny zapis łuku	!	!	!	!	!	!	!	!
.	.	.	16a/	.	(16ff\	.	.	.	(16ff\LL	no-	.	.	.
.	.	.	16g/)	.	16ee\	.	.	.	16ee\JJ)	.	.	.	.
8F\	6\	.	16f/	.	16dd\)	.	.	.	16dd\	-mi-	.	.	.
.	.	.	16e/JJ	.	16cc\JJ	.	.	.	16cc\	-ne	.	.	.
=36	=36	=36	=36	=36	=36	=36	=36	=36	=36	=36	=36	=36	=36
!LO:TX:a:t=P:problem=mixed beam	!	!	!	!	!	!	!	!	!	!	!	!	!
8G\L	n_	.	8.d/L	.	8.bn\L	.	4.ryy	4.ryy	16.bn\	Do-	.	.	.
.	.	.	.	.	.	.	.	.	32cc\	-mi-	.	.	.
8GG/	.	.	.	.	.	.	.	.	8dd\	-ni	.	.	.
.	x	.	16e/K	.	16cc\K	.	.	.	.	.	.	.	.
8G\J	.	.	8f/J	.	8dd\J	.	.	.	8r	.	.	.	.
!	!	!	!	!	!LO:LB:g=original	!	!	!	!	!	!	!	!LO:LB:g=original
=37	=37	=37	=37	=37	=37	=37	=37	=37	=37	=37	=37	=37	=37
8GG/L	7 4	.	16r	.	16r	.	4.ryy	4.ryy	16r	.	8g\	.	8g\
.	.	.	16f/	.	16dd\	.	.	.	16dd\	in	.	.	.
.	.	.	.	.	.	.	.	.	8qqee/	.	.	.	.
8GG/	6 4	.	16f/LL	.	16dd\LL	.	.	.	(16dd\LL	no-	8r	.	8r
!	!	!	!LO:SIC:o:s=:v:niejednoznaczny zapis łuku	!	!	!	!	!	!	!	!	!	!
.	.	.	(16e/	.	16cc\	.	.	.	16cc\JJ)	.	.	.	.
!	!	!	!	!	!	!	!	!	!LO:LB:g=original	!	!	!	!
8GG/J	5 4	.	16e/)	.	16cc\	.	.	.	16cc\	-mi-	8r	.	8r
.	.	.	16d/JJ	.	16bn\JJ	.	.	.	16bn\	-ne	.	.	.
!	!	!	!	!	!	!	!	!	!	!	!LO:LB:g=original	!	!
=38	=38	=38	=38	=38	=38	=38	=38	=38	=38	=38	=38	=38	=38
8GG/L	6 4_	.	8.e/L	.	8.cc\L	.	4.ryy	4.ryy	8.cc\	Do-	4.r	.	4.r
8GG/	.	.	.	.	.	.	.	.	.	.	.	.	.
.	.	.	16f/K	.	16dd\K	.	.	.	16dd\	-mi-	.	.	.
8GG/J	x	.	8g/J	.	8ee\J	.	.	.	8ee\	-ni	.	.	.
=39	=39	=39	=39	=39	=39	=39	=39	=39	=39	=39	=39	=39	=39
8GG/L	6 4	.	16r	.	16r	.	4.ryy	4.ryy	16r	.	8g\	.	8g\
.	.	.	16g/	.	16ee\	.	.	.	16ee\	in	.	.	.
!	!	!	!LO:SIC:o:s=:v:niejednoznaczny zapis łuku	!	!	!	!	!	!	!	!	!	!
8GG/	7 5	.	(16g/LL	.	16ee\LL	.	.	.	(16ee\LL	No-	8r	.	8r
!	!	!	!	!	!LO:SIC:o:s=:v:niejednoznaczny zapis łuku	!	!	!	!	!	!	!	!
.	.	.	16f/	.	(16dd\	.	.	.	16dd\JJ)	.	.	.	.
8GG/J	6 4	.	16f/)	.	16dd\	.	.	.	16dd\	-mi-	8r	.	8r
.	.	.	16e/JJ	.	16cc\JJ)	.	.	.	16cc\	-ne	.	.	.
=40	=40	=40	=40	=40	=40	=40	=40	=40	=40	=40	=40	=40	=40
!	!	!	!LO:SIC:s=:v:16Bn	!	!	!	!	!	!	!	!	!	!
8GG/L	5 4	.	16B-/KL	.	16bn\KL	.	4.ryy	4.ryy	16bn\KL	Do-	4.r	.	4.r
!	!	!	!LO:SIC:s=:v:8bn	!	!	!	!	!	!	!	!	!	!
.	.	.	8b-/	.	8dd\	.	.	.	8dd\	.	.	.	.
8GG/	6 4	.	.	.	.	.	.	.	.	.	.	.	.
.	.	.	8cc/	.	8ee\	.	.	.	8ee\	.	.	.	.
8GG/J	7 5	.	.	.	.	.	.	.	.	.	.	.	.
.	.	.	16dd/Jk	.	16ff\Jk	.	.	.	16ff\Jk	.	.	.	.
=41	=41	=41	=41	=41	=41	=41	=41	=41	=41	=41	=41	=41	=41
8C\L	.	.	8cc\	.	8ee\L	.	4.ryy	4.ryy	8ee\L	.	8c/	.	8g\
8r	.	.	8r	.	(8gg\	.	.	.	8gg\	.	8r	.	8r
8E\J	6\	.	8g/	.	8cc#X\J)	.	.	.	8cc#X\J	.	8r	.	8r
=42	=42	=42	=42	=42	=42	=42	=42	=42	=42	=42	=42	=42	=42
!	!	!	!	!	!	!	!	!	!	!	!LO:N:vis=00	!	!LO:N:vis=00
8F\L	6	.	8a/	.	8dd\L	.	4.ryy	4.ryy	8dd\L	.	1.r	.	1.r
8r	.	.	8r	.	(8ff\	.	.	.	8ff\J	.	.	.	.
8G\J	7 4	.	8f/	.	8bn\J)	.	.	.	8bn\	-mi-	.	.	.
!	!	!	!LO:LB:g=original	!	!	!	!	!	!	!	!	!	!
=43	=43	=43	=43	=43	=43	=43	=43	=43	=43	=43	=43	=43	=43
8A\L	3	.	8e/	.	8ee\L	.	4.ryy	4.ryy	8cc\	-ni	.	.	.
8r	.	.	8r	.	(8gg\	.	.	.	8r	.	.	.	.
8E\J	6\	.	8g/	.	8cc#X\J)	.	.	.	8cc#X\	qui	.	.	.
=44	=44	=44	=44	=44	=44	=44	=44	=44	=44	=44	=44	=44	=44
8F\L	6	.	8a/	.	8dd\L	.	4.ryy	4.ryy	8dd\L	ve-	.	.	.
8r	.	.	8r	.	(8ff\	.	.	.	8ff\	.	.	.	.
8G\J	4	.	8f/	.	8bn\J)	.	.	.	8bn\J	.	.	.	.
!	!	!	!	!	!	!	!	!	!LO:LB:g=original	!	!	!	!
=45	=45	=45	=45	=45	=45	=45	=45	=45	=45	=45	=45	=45	=45
!LO:TX:a:t=P:problem=mixed beam	!	!	!	!	!	!	!	!	!	!	!	!	!
16C/LL	3	.	16e/LL	.	16cc'\LL	.	4.ryy	4.ryy	8cc\	-nit	.	.	.
!	!	!	!LO:SIC:o:s=:v:niejednoznaczny zapis łuku	!	!	!	!	!	!	!	!	!	!
!	!	!	!LO:TX:a:t=c	!	!LO:SIC:o:s=:v:niejednoznaczny zapis łuku	!	!	!	!	!	!	!	!
16c\	.	.	(16cc'/	.	(16ee'\	.	.	.	.	.	.	.	.
16Bn\	.	.	16cc'/	.	16ee'\	.	.	.	8r	.	.	.	.
16A\	.	.	16cc'/	.	16ee'\	.	.	.	.	.	.	.	.
16G\	.	.	16cc'/)	.	16ee'\)	.	.	.	8ee\	in	.	.	.
16F\JJ	.	.	16cc/JJ	.	16ee'\JJ	.	.	.	.	.	.	.	.
!LO:LB:g=original	!	!	!	!	!	!	!	!	!	!	!	!	!
=46	=46	=46	=46	=46	=46	=46	=46	=46	=46	=46	=46	=46	=46
!	!	!	!	!	!LO:TX:a:B:t=t	!	!	!	!	!	!LO:N:vis=00	!	!LO:N:vis=00
8E\L	6	.	8.cc\L	.	8.ee\L	.	4.ryy	4.ryy	8.ee\	no-	1.r	.	1.r
8D\	n	.	.	.	.	.	.	.	.	.	.	.	.
.	.	.	16dd\K	.	16ff\K	.	.	.	16ff\	-mi-	.	.	.
8C\J	6	.	8ee\J	.	8gg\J	.	.	.	8gg\	-ne	.	.	.
=47	=47	=47	=47	=47	=47	=47	=47	=47	=47	=47	=47	=47	=47
!LO:TX:a:t=P:problem=mixed beam	!	!	!	!	!	!	!	!	!	!	!	!	!
8F\L	.	.	24ff\LL	.	24aa\LL	.	4.ryy	4.ryy	24aa\LL	Do-	.	.	.
.	.	.	24ee\	.	24gg\	.	.	.	24gg\	.	.	.	.
.	.	.	24dd\JJ	.	24ff\JJ	.	.	.	24ff\JJ	.	.	.	.
!	!	!	!	!	!LO:LB:g=original	!	!	!	!	!	!	!	!
8G\	6 4	.	8cc\L	.	8ee\L	.	.	.	8ee\	.	.	.	.
8GG/J	5 4	.	8bn\J	.	8dd\J	.	.	.	8dd\	-mi-	.	.	.
=48	=48	=48	=48	=48	=48	=48	=48	=48	=48	=48	=48	=48	=48
!LO:TX:a:t=P:problem=mixed beam	!	!	!LO:SIC:o:s=:v:niejednoznaczny zapis łuku	!LO:DY:a	!LO:SIC:o:s=:v:niejednoznaczny zapis łuku	!	!	!	!	!	!	!	!
16C/LL	3	.	(16cc'\LL	p	(16cc\LL	.	4.ryy	4.ryy	8cc\	-ni	.	.	.
16c\	.	.	16cc'\	.	16ee\	.	.	.	.	.	.	.	.
16Bn\	_	.	16cc'\	.	16ee\	.	.	.	8r	.	.	.	.
16A\	.	.	16cc'\	.	16ee\	.	.	.	.	.	.	.	.
16G\	x	.	16cc'\	.	16ee\	.	.	.	8ee\	in	.	.	.
16F\JJ	.	.	16cc'\JJ)	.	16ee\JJ)	.	.	.	.	.	.	.	.
=49	=49	=49	=49	=49	=49	=49	=49	=49	=49	=49	=49	=49	=49
!	!	!	!LO:TX:a:B:t=t	!	!	!	!	!	!	!	!	!	!
8E\L	6	.	8.cc\L	.	8.ee\L	.	4.ryy	4.ryy	8.ee\	no-	.	.	.
8D\	4	.	.	.	.	.	.	.	.	.	.	.	.
.	.	.	16dd\K	.	16ff\K	.	.	.	16ff\	-mi-	.	.	.
8C\J	.	.	8ee\J	.	8gg\J	.	.	.	8gg\	-ne	.	.	.
=50	=50	=50	=50	=50	=50	=50	=50	=50	=50	=50	=50	=50	=50
!LO:TX:a:t=P:problem=mixed beam	!	!	!	!	!	!	!	!	!	!	!	!	!
8F\L	.	.	24ff\LL	.	24aa\LL	.	4.ryy	4.ryy	24aa\LL	Do-	4.r	.	4.r
.	.	.	24ee\	.	24gg\	.	.	.	24gg\	.	.	.	.
.	.	.	24dd\JJ	.	24ff\JJ	.	.	.	24ff\JJ	.	.	.	.
!	!	!	!	!	!LO:TX:a:B:t=t	!	!	!	!	!	!	!	!
8G\	6 4	.	8cc\L	.	8ee\L	.	.	.	8ee\	.	.	.	.
!	!	!	!	!	!	!	!	!	!LO:SIC:o:s=:v:ozdobnik t [przyjęto trillo]&colon;global	!	!	!	!
!	!	!	!	!	!	!	!	!	!LO:TX:a:B:t=t	!	!	!	!
8GG\J	5 4	.	8bn\J	.	8dd\J	.	.	.	8dd\	-mi-	.	.	.
=51	=51	=51	=51	=51	=51	=51	=51	=51	=51	=51	=51	=51	=51
4C/	.	.	8cc\	f	16.cc\LL	.	4.ryy	4.ryy	4cc\	-ni	8c/	.	8g\
.	.	.	.	.	32ee\JJk	.	.	.	.	.	.	.	.
.	.	.	24cc\LL	.	24ee\LL	.	.	.	.	.	8r	.	8r
.	.	.	24bn\	.	24dd\	.	.	.	.	.	.	.	.
.	.	.	24a\JJ	.	24cc\JJ	.	.	.	.	.	.	.	.
8r	.	.	24g/LL	.	24bn/LL	.	.	.	8r	.	8r	.	8r
.	.	.	24f/	.	24a/	.	.	.	.	.	.	.	.
.	.	.	24e/JJ	.	24g/JJ	.	.	.	.	.	.	.	.
=52	=52	=52	=52	=52	=52	=52	=52	=52	=52	=52	=52	=52	=52
.	.	.	.	.	16qqa/LL	.	.	.	.	.	.	.	.
.	.	.	.	.	16qqb-/JJ	.	.	.	.	.	.	.	.
!	!	!	!	!	!	!	!	!	!LO:N:vis=00	!	!	!	!
8F\L	.	.	8f/	.	8a/	.	4.ryy	4.ryy	1.r	.	8a\	.	8a\
!	!	!	!	!	!LO:TX:a:B:t=t	!	!	!	!	!	!	!	!LO:TX:a:B:t=t
8G\	6 4	.	4d/	.	4f/	.	.	.	.	.	4g\	.	4bX\
8G\J	7 n3	.	.	.	.	.	.	.	.	.	.	.	.
=53	=53	=53	=53	=53	=53	=53	=53	=53	=53	=53	=53	=53	=53
!	!	!	!LO:TX:a:t=P:problem=mixed beam	!	!LO:TX:a:t=P:problem=mixed beam	!	!	!	!	!	!	!	!
4A\	5	.	16.c/LL	.	16.e/LL	.	4.ryy	4.ryy	.	.	4g\	.	4cc\
.	.	.	32cc\JJk	.	32ee\JJk	.	.	.	.	.	.	.	.
!	!	!	!LO:LB:g=original	!	!	!	!	!	!	!	!	!	!
.	.	.	24cc\LL	.	24ee\LL	.	.	.	.	.	.	.	.
.	.	.	24bn\	.	24dd\	.	.	.	.	.	.	.	.
.	.	.	24a\JJ	.	24cc\JJ	.	.	.	.	.	.	.	.
8r	.	.	24g/LL	.	24bn/LL	.	.	.	.	.	8r	.	8r
.	.	.	24f/	.	24a/	.	.	.	.	.	.	.	.
.	.	.	24e/JJ	.	24g/JJ	.	.	.	.	.	.	.	.
=54	=54	=54	=54	=54	=54	=54	=54	=54	=54	=54	=54	=54	=54
!LO:TX:a:t=P:problem=mixed beam	!	!	!	!	!	!	!	!	!	!	!	!	!
8F\L	6	.	16.a\LL	.	16.a\LL	.	4.ryy	4.ryy	.	.	8f\L	.	8a\L
.	.	.	32dd\JJk	.	32ff\JJk	.	.	.	.	.	.	.	.
!	!	!	!	!	!LO:TX:a:B:t=t	!	!	!	!	!	!	!	!
.	.	.	8qqcc/	.	.	.	.	.	.	.	.	.	.
8G\	6 4	.	4bn\	.	4dd\	.	.	.	.	.	8g\J	.	8g\J
8GG/J	5 n3	.	.	.	.	.	.	.	.	.	8r	.	8r
=55	=55	=55	=55	=55	=55	=55	=55	=55	=55	=55	=55	=55	=55
8C/L	.	.	16.cc/LL	.	16.cc/LL	.	4.ryy	4.ryy	.	.	8c/L	.	8g\L
.	.	.	32g/JJk	.	32g/JJk	.	.	.	.	.	.	.	.
8CC/J	.	.	4e/	.	4e/	.	.	.	.	.	16c/L	.	16g\L
.	.	.	.	.	.	.	.	.	.	.	16c/	.	16g\
8r	.	.	.	.	.	.	.	.	.	.	16c/	.	16g\
.	.	.	.	.	.	.	.	.	.	.	16c/JJ	.	16g\JJ
!	!	!	!	!	!LO:LB:g=original	!	!	!	!LO:LB:g=original	!	!	!	!
=56	=56	=56	=56	=56	=56	=56	=56	=56	=56	=56	=56	=56	=56
!	!	!	!	!LO:DY:a	!	!	!	!	!	!	!	!	!
16r	.	.	4.e/	p	4.g/	.	4.ryy	4.ryy	4.g/	Be-	4c/	.	4g\
16CC/LL	3_	.	.	.	.	.	.	.	.	.	.	.	.
16EE/	.	.	.	.	.	.	.	.	.	.	.	.	.
16GG/	x	.	.	.	.	.	.	.	.	.	.	.	.
16C/	.	.	.	.	.	.	.	.	.	.	8r	.	8r
16E/JJ	.	.	.	.	.	.	.	.	.	.	.	.	.
=57	=57	=57	=57	=57	=57	=57	=57	=57	=57	=57	=57	=57	=57
!LO:TX:a:t=P:problem=mixed beam	!	!	!	!	!	!	!	!	!	!	!LO:N:vis=00	!	!LO:N:vis=00
16G\LL	7 4	.	4.d/	.	4.f/	.	4.ryy	4.ryy	4.f/	-ne-	1.r	.	1.r
16GG/	.	.	.	.	.	.	.	.	.	.	.	.	.
16BBn/	.	.	.	.	.	.	.	.	.	.	.	.	.
16D/	.	.	.	.	.	.	.	.	.	.	.	.	.
16G/	.	.	.	.	.	.	.	.	.	.	.	.	.
16Bn/JJ	.	.	.	.	.	.	.	.	.	.	.	.	.
!LO:LB:g=original	!	!	!	!	!	!	!	!	!	!	!	!	!
=58	=58	=58	=58	=58	=58	=58	=58	=58	=58	=58	=58	=58	=58
!	!	!	!	!	!	!	!	!	!LO:TX:a:t=P:problem=mixed beam	!	!	!	!
4c\	.	.	8c/L	.	8e/	.	4.ryy	4.ryy	8e/L	-di-	.	.	.
.	.	.	(8a/	.	(8cc\L	.	.	.	8cc\J	.	.	.	.
8r	.	.	8g/J)	.	8bn\J)	.	.	.	8bn\	-ctus	.	.	.
=59	=59	=59	=59	=59	=59	=59	=59	=59	=59	=59	=59	=59	=59
!LO:TX:a:t=P:problem=mixed beam	!	!	!	!	!	!	!	!	!	!	!	!	!
8F\L	.	.	8f/	.	8a/	.	4.ryy	4.ryy	8a\	qui	.	.	.
.	.	.	.	.	8qqg/	.	.	.	8qqg/	.	.	.	.
8G\	6 4	.	4d/	.	4f/	.	.	.	4f/	ve-	.	.	.
8GG/J	5 3	.	.	.	.	.	.	.	.	.	.	.	.
.	n	.	.	.	.	.	.	.	.	.	.	.	.
=60	=60	=60	=60	=60	=60	=60	=60	=60	=60	=60	=60	=60	=60
4C/	.	.	8c/L	.	8e/L	.	4.ryy	4.ryy	8e/	-nit	.	.	.
.	.	.	8e/	.	8g/	.	.	.	(8g\L	in	.	.	.
8r	.	.	8f/J	.	8a/J	.	.	.	8a\J)	.	.	.	.
=61	=61	=61	=61	=61	=61	=61	=61	=61	=61	=61	=61	=61	=61
!	!	!	!	!	!	!	!	!	!	!	!LO:N:vis=0	!	!LO:N:vis=0
4.r	.	.	8g/L	.	8b-X\L	.	4.ryy	4.ryy	(8b-X\L	no-	2.r	.	2.r
.	.	.	8a/	.	8cc\	.	.	.	8cc\	.	.	.	.
.	.	.	8b-/J	.	8dd\J	.	.	.	(<8dd\J)	.	.	.	.
=62	=62	=62	=62	=62	=62	=62	=62	=62	=62	=62	=62	=62	=62
!LO:TX:a:t=P:problem=mixed beam	!	!	!LO:SIC:o:s=:v:niejednoznaczny zapis łuku	!	!LO:SIC:o:s=:v:niejednoznaczny zapis łuku	!	!	!	!	!	!	!	!
8F\L	.	.	(8a/L	.	(8cc\L	.	4.ryy	4.ryy	8cc\)	.	.	.	.
8BB-/	8 6	.	8g/	.	8b-\	.	.	.	8b-\	-mi-	.	.	.
8BBn/J	7 5	.	8f/J)	.	8a\J)	.	.	.	8a\	-ne	.	.	.
=63	=63	=63	=63	=63	=63	=63	=63	=63	=63	=63	=63	=63	=63
!LO:TX:a:t=P:problem=mixed beam	!	!	!LO:TX:a:B:t=t	!	!	!	!	!	!	!	!	!	!
8C/L	6 4	.	8f/L	.	8a/L	.	4.ryy	4.ryy	16.a\	Do-	4.r	.	4.r
.	.	.	.	.	.	.	.	.	32g\	-mi-	.	.	.
16c\L	5_ 3_	.	8e/J	.	8g/J	.	.	.	8g/	-ni	.	.	.
16B-X\	.	.	.	.	.	.	.	.	.	.	.	.	.
16A\	x	.	8r	.	8r	.	.	.	8r	.	.	.	.
16G\JJ	.	.	.	.	.	.	.	.	.	.	.	.	.
=64	=64	=64	=64	=64	=64	=64	=64	=64	=64	=64	=64	=64	=64
!LO:TX:a:t=P:problem=mixed beam	!	!	!	!	!	!	!	!	!	!	!	!LO:DY:a	!
16F\LL	3_	.	4.a/	.	4.cc\	.	4.ryy	4.ryy	4.cc\	Be-	4.a\	p	4.cc\
16FF/	.	.	.	.	.	.	.	.	.	.	.	.	.
16AA/	x	.	.	.	.	.	.	.	.	.	.	.	.
16C/	.	.	.	.	.	.	.	.	.	.	.	.	.
16F/	.	.	.	.	.	.	.	.	.	.	.	.	.
16A/JJ	.	.	.	.	.	.	.	.	.	.	.	.	.
!	!	!	!	!	!	!	!	!	!LO:PB:g=original	!	!	!	!
=65	=65	=65	=65	=65	=65	=65	=65	=65	=65	=65	=65	=65	=65
!LO:TX:a:t=P:problem=mixed beam	!	!	!	!	!	!	!	!	!	!	!	!	!LO:TX:a:B:t=t
.	.	.	.	.	8qqcc/	.	.	.	.	.	.	.	.
16c\LL	7_	.	4.g/	.	4.b-\	.	4.ryy	4.ryy	4.b-\	-ne-	4.g\	.	4.b-\
16CC/	.	.	.	.	.	.	.	.	.	.	.	.	.
16EE/	x	.	.	.	.	.	.	.	.	.	.	.	.
16GG/	.	.	.	.	.	.	.	.	.	.	.	.	.
16C/	.	.	.	.	.	.	.	.	.	.	.	.	.
16E/JJ	.	.	.	.	.	.	.	.	.	.	.	.	.
!	!	!	!	!	!	!	!	!	!	!	!	!	!LO:N:vis=00
=66	=66	=66	=66	=66	=66	=66	=66	=66	=66	=66	=66	=66	=66
!	!	!	!LO:TX:a:t=P:problem=mixed beam	!	!	!	!	!	!	!	!	!	!
4F\	.	.	8f/L	.	8a\L	.	4.ryy	4.ryy	(8a\L	-dic-	8f\	.	8a\
.	.	.	(8dd\	.	(8ff\	.	.	.	8ff\	.	8r	.	8r
8r	.	.	8cc\J)	.	8ee\J)	.	.	.	8ee\J)	.	8r	.	8r
=67	=67	=67	=67	=67	=67	=67	=67	=67	=67	=67	=67	=67	=67
!LO:TX:a:t=P:problem=mixed beam	!	!	!	!	!	!	!	!	!	!	!LO:TX:a:t=1	!	!
8B-\L	.	.	8b-/	.	8dd\	.	4.ryy	4.ryy	8dd\	-tus	4.r	.	4.r
!	!	!	!	!	!	!	!	!	!LO:TX:a:B:t=t	!	!	!	!
.	.	.	.	.	8qqcc/	.	.	.	8qqcc/	.	.	.	.
8c\	6 4	.	4g/	.	4b-\	.	.	.	4b-\	qui	.	.	.
8C/J	5 3	.	.	.	.	.	.	.	.	.	.	.	.
!	!	!	!LO:LB:g=original	!	!	!	!	!	!	!	!LO:PB:g=original	!	!
=68	=68	=68	=68	=68	=68	=68	=68	=68	=68	=68	=68	=68	=68
!LO:TX:a:t=P:problem=mixed beam	!	!	!	!	!	!	!	!	!	!	!	!	!
16F\LL	3_	.	24f/LL	.	24a\LL	.	4.ryy	4.ryy	(16a\LL	ve-	16r	.	16r
.	.	.	24g/	.	24b-\	.	.	.	.	.	.	.	.
16FF/	.	.	.	.	.	.	.	.	16b-\JJ)	.	16f\	.	16a\
.	.	.	24a/JJ	.	24cc\JJ	.	.	.	.	.	.	.	.
!	!	!	!LO:TX:a:B:t=t	!	!LO:TX:a:B:t=t	!	!	!	!	!	!LO:SIC:o:s=:v:niejednoznaczny zapis łuku	!	!
16AA/	x	.	4a/	.	4cc\	.	.	.	8cc\	-nit	(16a\LL	.	16cc\LL
!	!	!	!	!	!	!	!	!	!	!	!	!	!LO:SIC:o:s=:v:niejednoznaczny zapis łuku
16C/	.	.	.	.	.	.	.	.	.	.	16f\	.	(16a\
16F/	.	.	.	.	.	.	.	.	16r	.	16a\)	.	16cc\)
16A/JJ	.	.	.	.	.	.	.	.	16cc\	qui	16f\JJ	.	16a\JJ
!LO:LB:g=original	!	!	!	!	!	!	!	!	!	!	!	!	!
=69	=69	=69	=69	=69	=69	=69	=69	=69	=69	=69	=69	=69	=69
!LO:TX:a:t=P:problem=mixed beam	!	!	!	!	!	!	!	!	!	!	!	!	!
16c\LL	7	.	24e/LL	.	24g/LL	.	4.ryy	4.ryy	(16g\LL	ve-	16r	.	16r
.	.	.	24f/	.	24a/	.	.	.	.	.	.	.	.
16CC/	4	.	.	.	.	.	.	.	16a\JJ)	.	16c/	.	16g\
.	.	.	24g/JJ	.	24b-/JJ	.	.	.	.	.	.	.	.
!	!	!	!LO:TX:a:B:t=t	!	!LO:TX:a:B:t=t	!	!	!	!	!	!	!	!
16EE/	.	.	4g/	.	4b-/	.	.	.	8b-\	-nit	16g\LL	.	16b-\LL
!	!	!	!	!	!	!	!	!	!	!	!LO:SIC:o:s=:v:niejednoznaczny zapis łuku	!	!LO:SIC:o:s=:v:niejednoznaczny zapis łuku
16GG/	.	.	.	.	.	.	.	.	.	.	(16c\	.	(16g\
16C/	.	.	.	.	.	.	.	.	16r	.	16g\)	.	16b-\
16E/JJ	.	.	.	.	.	.	.	.	16b-\	in	16c\JJ	.	16g\JJ)
!	!	!	!	!	!LO:LB:g=original	!	!	!	!	!	!	!	!
=70	=70	=70	=70	=70	=70	=70	=70	=70	=70	=70	=70	=70	=70
4F\	.	.	16.f/LL	.	16.a\LL	.	4.ryy	4.ryy	8a\	no-	8f\	.	8a\
.	.	.	32a/JJk	.	32ff\JJk	.	.	.	.	.	.	.	.
.	.	.	24a/LL	.	24ff\LL	.	.	.	24ff\LL	.	8r	.	8r
.	.	.	24g/	.	24ee\	.	.	.	24ee\	.	.	.	.
.	.	.	24b-/JJ	.	24dd\JJ	.	.	.	24dd\JJ	.	.	.	.
8r	.	.	24a/LL	.	24cc\LL	.	.	.	(24cc\LL	-mi-	8f\	.	8a\
.	.	.	24g/	.	24b-\	.	.	.	24b-\JJ)	.	.	.	.
.	.	.	24f/JJ	.	24a\JJ	.	.	.	24a\	-ne	.	.	.
=71	=71	=71	=71	=71	=71	=71	=71	=71	=71	=71	=71	=71	=71
!LO:TX:a:t=P:problem=mixed beam	!	!	!	!	!	!	!	!	!	!	!	!	!
16c\LL	6_ 4_	.	8f/L	.	8a/L	.	4.ryy	4.ryy	16.a\	Do-	8f\L	.	8a\L
16C/	.	.	.	.	.	.	.	.	.	.	.	.	.
.	.	.	.	.	.	.	.	.	32g/	-mi-	.	.	.
16c\	5_ 3_	.	8e/J	.	8g/J	.	.	.	8g/	-ni	8c\J	.	8g\J
16B-\	.	.	.	.	.	.	.	.	.	.	.	.	.
16A\	.	.	8r	.	8r	.	.	.	8r	.	8r	.	8r
16G\JJ	x	.	.	.	.	.	.	.	.	.	.	.	.
=72	=72	=72	=72	=72	=72	=72	=72	=72	=72	=72	=72	=72	=72
!	!	!	!	!	!	!	!	!	!	!	!LO:N:vis=00	!	!LO:N:vis=00
8F#X\L	-7	.	8a\L	.	16r	.	4.ryy	4.ryy	8ee\	qui	1.r	.	1.r
.	.	.	.	.	16ee-X\	.	.	.	.	.	.	.	.
!	!	!	!LO:SIC:o:s=:v:niejednoznaczny zapis łuku	!	!	!	!	!	!	!	!	!	!
8G\	3	.	(8b-\	.	24dd\LL	.	.	.	24dd\LL	ve-	.	.	.
.	.	.	.	.	24cc\	.	.	.	24cc\	.	.	.	.
.	.	.	.	.	24b-\JJ	.	.	.	24b-\JJ	.	.	.	.
!	!	!	!	!	!	!	!	!	!LO:LB:g=original	!	!	!	!
8A\J	6\	.	8cc\J)	.	24a/LL	.	.	.	24a\LL	.	.	.	.
.	.	.	.	.	24g/	.	.	.	24g\	.	.	.	.
.	.	.	.	.	24f#X/JJ	.	.	.	24f#X\JJ	.	.	.	.
=73	=73	=73	=73	=73	=73	=73	=73	=73	=73	=73	=73	=73	=73
!	!	!	!	!	!LO:TX:a:t=P:problem=mixed beam	!	!	!	!	!	!	!	!
8B-\L	6	.	8dd\L	.	16.g/LL	.	4.ryy	4.ryy	8g/	-nit	.	.	.
.	.	.	.	.	32ff#X\JJk	.	.	.	.	.	.	.	.
8A\	6\	.	8cc\	.	8ff#\L	.	.	.	8r	.	.	.	.
8G\J	3	.	8b-\J	.	8gg\J	.	.	.	8r	.	.	.	.
=74	=74	=74	=74	=74	=74	=74	=74	=74	=74	=74	=74	=74	=74
8E\L	7	.	8g/L	.	16r	.	4.ryy	4.ryy	8dd\	qui	.	.	.
.	.	.	.	.	16dd\	.	.	.	.	.	.	.	.
8Fn\	.	.	8a/	.	24cc\LL	.	.	.	24cc\LL	ve-	.	.	.
.	.	.	.	.	24b-\	.	.	.	24b-\	.	.	.	.
.	.	.	.	.	24a\JJ	.	.	.	24a\JJ	.	.	.	.
8G\J	6	.	8b-/J	.	24g/LL	.	.	.	24g/LL	.	.	.	.
!	!	!	!	!	!	!	!	!	!LO:SIC:o:s=:v:♭ w formie kasownika	!	!	!	!
.	.	.	.	.	24fn/	.	.	.	24fn/	.	.	.	.
.	.	.	.	.	24e/JJ	.	.	.	24en/JJ	.	.	.	.
=75	=75	=75	=75	=75	=75	=75	=75	=75	=75	=75	=75	=75	=75
!	!	!	!	!	!LO:TX:a:t=P:problem=mixed beam	!	!	!	!	!	!	!	!
8A\L	6	.	8cc\L	.	16f/LL	.	4.ryy	4.ryy	8f/	-nit	.	.	.
.	.	.	.	.	16ee\JJk	.	.	.	.	.	.	.	.
8G\	6	.	8b-\	.	8ee\L	.	.	.	8r	.	.	.	.
8F\J	.	.	8a\J	.	8ff\J	.	.	.	8r	.	.	.	.
=76	=76	=76	=76	=76	=76	=76	=76	=76	=76	=76	=76	=76	=76
16r	.	.	24e/LL	.	24g/LL	.	4.ryy	4.ryy	8g\	Be-	8c/	.	8g\L
.	.	.	24f/	.	24a/	.	.	.	.	.	.	.	.
16CC/LL	7_	.	.	.	.	.	.	.	.	.	.	.	.
.	.	.	24g/JJ	.	24b-/JJ	.	.	.	.	.	.	.	.
!	!	!	!	!	!	!	!	!	!	!	!	!	!LO:TX:a:B:t=t
16EE/	.	.	4g/	.	4b-/	.	.	.	8.g\L	-ne-	8.c/L	.	8.g\
16GG/	x	.	.	.	.	.	.	.	.	.	.	.	.
16C/	.	.	.	.	.	.	.	.	.	.	.	.	.
16E/JJ	.	.	.	.	.	.	.	.	(32a\LL	.	(32f/LL	.	(32a\LL
.	.	.	.	.	.	.	.	.	32b-\JJJ)	.	32g/JJJ)	.	32b-\JJJ)
=77	=77	=77	=77	=77	=77	=77	=77	=77	=77	=77	=77	=77	=77
!	!	!	!	!	!LO:TX:a:t=P:problem=mixed beam	!	!	!	!	!	!	!	!
4F\	7_	.	16f/LL	.	16a/LL	.	4.ryy	4.ryy	16.a\LL	-dic-	16.f\LL	.	(16.a\LL
.	.	.	16cc/	.	16aa\	.	.	.	.	.	.	.	.
.	x	.	.	.	.	.	.	.	32b-\JJk	.	32g\JJk	.	32b-\JK
!	!	!	!LO:SIC:o:s=:v:niejednoznaczny zapis łuku	!	!LO:SIC:o:s=:v:niejednoznaczny zapis łuku	!	!	!	!	!	!	!	!
.	.	.	(16b-/	.	(16gg\	.	.	.	8cc\	-tus	8a\	.	8cc\J)
.	.	.	16a/	.	16ff\	.	.	.	.	.	.	.	.
8r	.	.	16g/)	.	16ee\)	.	.	.	8r	.	8r	.	8r
.	.	.	16a/JJ	.	16ff\JJ	.	.	.	.	.	.	.	.
=78	=78	=78	=78	=78	=78	=78	=78	=78	=78	=78	=78	=78	=78
16r	.	.	8b-/	.	24gg\LL	.	4.ryy	4.ryy	8g\	qui	8c/	.	8g\L
!	!	!	!	!	!	!LO:DY:a	!	!	!	!	!	!	!
.	.	.	.	.	24ee\	f	.	.	.	.	.	.	.
16CC/LL	7_	.	.	.	.	.	.	.	.	.	.	.	.
.	.	.	.	.	24b-\JJ	.	.	.	.	.	.	.	.
16EE/	.	.	4g/	.	4b-\	.	.	.	8.g\L	ve-	8.c/L	.	8.g\
16GG/	x	.	.	.	.	.	.	.	.	.	.	.	.
16C/	.	.	.	.	.	.	.	.	.	.	.	.	.
16E/JJ	.	.	.	.	.	.	.	.	(32a\LL	.	(32f/LL	.	(32a\LL
.	.	.	.	.	.	.	.	.	32b-\JJJ)	.	32g/JJJ)	.	32b-\JJJ)
!	!	!	!	!	!LO:TX:b:t=verte	!	!	!	!	!	!	!	!
!	!	!	!LO:PB:g=original	!	!LO:PB:g=original	!	!	!	!	!	!	!	!
=79	=79	=79	=79	=79	=79	=79	=79	=79	=79	=79	=79	=79	=79
4F\	.	.	16f/LL	.	16a/LL	.	4.ryy	4.ryy	16.a\LL	.	8f\	.	8a\
!	!	!	!	!	!LO:SIC:o:s=:v:niejednoznaczny zapis łuku	!	!	!	!	!	!	!	!
.	.	.	16c/	.	(16a/	.	.	.	.	.	.	.	.
.	.	.	.	.	.	.	.	.	32b-\JJk	.	.	.	.
!	!	!	!LO:SIC:o:s=:v:niejednoznaczny zapis łuku	!	!	!	!	!	!	!	!	!	!
.	.	.	(16B-/	.	16g/	.	.	.	8cc\	-nit	8r	.	8r
.	.	.	16A/)	.	16f/)	.	.	.	.	.	.	.	.
8r	.	.	16G/	.	16e/	.	.	.	8r	.	8r	.	8r
.	.	.	16A/JJ	.	16f/JJ	.	.	.	.	.	.	.	.
!LO:LB:g=original	!	!	!	!	!	!	!	!	!LO:LB:g=original	!	!	!	!LO:LB:g=original
=80	=80	=80	=80	=80	=80	=80	=80	=80	=80	=80	=80	=80	=80
!	!	!	!	!	!	!	!	!	!	!	!	!	!LO:TX:a:t=3
!	!	!	!	!	!	!	!	!	!	!	!LO:N:vis=0	!	!LO:N:vis=0
8B-\L	.	.	8f/L	.	8dd\	.	4.ryy	4.ryy	4.dd\	qui	2.r	.	2.r
8B-\	.	.	8f/	.	24dd\LL	.	.	.	.	.	.	.	.
.	.	.	.	.	24ee\	.	.	.	.	.	.	.	.
.	.	.	.	.	24ff\JJ	.	.	.	.	.	.	.	.
8B-\J	.	.	8g/J	.	24gg\LL	.	.	.	.	.	.	.	.
.	.	.	.	.	24aa\	.	.	.	.	.	.	.	.
.	.	.	.	.	24bb-\JJ	.	.	.	.	.	.	.	.
=81	=81	=81	=81	=81	=81	=81	=81	=81	=81	=81	=81	=81	=81
8A\L	6	.	8g/L	.	24cc\LL	.	4.ryy	4.ryy	8cc\L	ve-	.	.	.
.	.	.	.	.	24dd\	.	.	.	.	.	.	.	.
.	.	.	.	.	24ee\JJ	.	.	.	.	.	.	.	.
8A\	6	.	8f/	.	24ff\LL	.	.	.	8ff\	.	.	.	.
.	.	.	.	.	24gg\	.	.	.	.	.	.	.	.
.	.	.	.	.	24aa\JJ	.	.	.	.	.	.	.	.
8G\J	.	.	8e/J	.	8b-/	.	.	.	8b-\J	.	.	.	.
=82	=82	=82	=82	=82	=82	=82	=82	=82	=82	=82	=82	=82	=82
!LO:TX:a:t=P:problem=mixed beam	!	!	!	!	!	!	!	!	!	!	!	!	!
8F\L	.	.	8f/	.	24a/LL	.	4.ryy	4.ryy	24a\LL	.	4.r	.	4.r
.	.	.	.	.	24g/	.	.	.	24g\	.	.	.	.
.	.	.	.	.	24f/JJ	.	.	.	24f\JJ	.	.	.	.
!	!	!	!LO:TX:a:B:t=t	!	!LO:TX:a:B:t=t	!	!	!	!	!	!	!	!
8c\	.	.	4e/	.	4g/	.	.	.	4g/	.	.	.	.
8C/J	.	.	.	.	.	.	.	.	.	.	.	.	.
=83	=83	=83	=83	=83	=83	=83	=83	=83	=83	=83	=83	=83	=83
!LO:TX:a:t=P:problem=mixed beam	!	!	!	!	!	!	!	!	!	!	!	!	!
16FF/LL	3_	.	16f'/LL	.	16f/LL	.	4.ryy	4.ryy	8f/	-nit	16r	.	16r
!	!	!	!	!	!LO:SIC:o:s=:v:niejednoznaczny zapis łuku	!	!	!	!	!	!	!	!
16F\	.	.	16f'/	.	(16a'/	.	.	.	.	.	16f\LL	.	16a\LL
16E\	x	.	16f'/	.	16a'/	.	.	.	8r	.	16f\	.	16a\
16D\	.	.	16f'/	.	16a'/	.	.	.	.	.	16f\	.	16a\
16C\	.	.	16f'/	.	16a'/)	.	.	.	8a\	in	16f\	.	16a\
16BB-\JJ	.	.	16f'/JJ	.	16a/JJ	.	.	.	.	.	16f\JJ	.	16a\JJ
!	!	!	!	!	!	!	!	!	!	!	!LO:LB:g=original	!	!
=84	=84	=84	=84	=84	=84	=84	=84	=84	=84	=84	=84	=84	=84
8AA/L	6	.	8.f/L	.	8.a/L	.	4.ryy	4.ryy	8.a\	no-	8.f\L	.	8.a\L
8GG/	6	.	.	.	.	.	.	.	.	.	.	.	.
.	.	.	16g/K	.	16b-/K	.	.	.	16b-\	-mi-	16g\K	.	16b-\K
!	!	!	!	!	!	!	!	!	!LO:N:vis=4	!	!	!	!
8FF/J	.	.	8a/J	.	8cc/J	.	.	.	8cc\	-ne	8a\J	.	8cc\J
=85	=85	=85	=85	=85	=85	=85	=85	=85	=85	=85	=85	=85	=85
8BB-/L	6	.	24b-/LL	.	24dd\LL	.	4.ryy	4.ryy	24dd\LL	Do-	4.r	.	4.r
.	.	.	24a/	.	24cc\	.	.	.	24cc\	.	.	.	.
.	.	.	24g/JJ	.	24b-\JJ	.	.	.	24b-\JJ	.	.	.	.
8C/	6 4	.	8f/L	.	8a/L	.	.	.	8a\	.	.	.	.
8CC/J	5 3	.	8e/J	.	8g/J	.	.	.	8g\	-mi-	.	.	.
=86	=86	=86	=86	=86	=86	=86	=86	=86	=86	=86	=86	=86	=86
!LO:TX:a:t=P:problem=mixed beam	!	!	!	!	!	!	!	!	!	!	!	!	!
16FF/LL	3	.	16f'/LL	.	16f/LL	.	4.ryy	4.ryy	8a\	-ni	16r	.	16r
!LO:SIC:o:s=:v:nieczytelna wysokość dźwięku	!	!	!	!	!LO:SIC:o:s=:v:niejednoznaczny zapis łuku; łuk pofalowany	!	!	!	!	!	!	!	!
16F\	.	.	16f'/	.	(16a/	.	.	.	.	.	16f\LL	.	16a\LL
16E\	.	.	16f'/	.	16a/	.	.	.	8r	.	16f\	.	16a\
16D\	.	.	16f'/	.	16a/	.	.	.	.	.	16f\	.	16a\
16C\	.	.	16f'/	.	16a/)	.	.	.	8a\	in	16f\	.	16a\
16BB-\JJ	.	.	16f'/JJ	.	16a/JJ	.	.	.	.	.	16f\JJ	.	16a\JJ
=87	=87	=87	=87	=87	=87	=87	=87	=87	=87	=87	=87	=87	=87
8AA/L	6	.	8.f/L	.	8.a/L	.	4.ryy	4.ryy	8.a\	no-	8.f\L	.	8.a\L
8GG/	6	.	.	.	.	.	.	.	.	.	.	.	.
.	.	.	16g/K	.	16b-/K	.	.	.	16b-\	-mi-	16g\K	.	16b-\K
8FF/J	.	.	8a/J	.	8cc/J	.	.	.	8cc\	-ne	8a\J	.	8cc\J
!	!	!	!	!	!LO:LB:g=original	!	!	!	!	!	!	!	!
=88	=88	=88	=88	=88	=88	=88	=88	=88	=88	=88	=88	=88	=88
!	!	!	!	!	!	!	!	!	!	!	!LO:N:vis=0	!	!LO:N:vis=0
8C/L	.	.	24b-/LL	.	24dd\LL	.	4.ryy	4.ryy	24dd\LL	Do-	2.r	.	2.r
.	.	.	24a/	.	24cc\	.	.	.	24cc\	.	.	.	.
.	.	.	24g/JJ	.	24b-\JJ	.	.	.	24b-\JJ	.	.	.	.
!	!	!	!	!	!	!	!	!	!LO:LB:g=original	!	!	!	!
8C/	6 4	.	8f/L	.	8a/L	.	.	.	8a\	.	.	.	.
8CC/J	5 3	.	8e/J	.	8g/J	.	.	.	16.g/	.	.	.	.
.	.	.	.	.	.	.	.	.	32f/	-mi-	.	.	.
=89	=89	=89	=89	=89	=89	=89	=89	=89	=89	=89	=89	=89	=89
4.FF/	.	.	16.f/LL	.	8.f/L	.	4.ryy	4.ryy	4f/	-ni	.	.	.
.	.	.	32c/JJk	.	.	.	.	.	.	.	.	.	.
!	!	!	!LO:SIC:o:s=:v:kreska taktowa podwójna	!	!	!	!	!	!	!	!	!	!
.	.	.	4A;/	.	.	.	.	.	.	.	.	.	.
.	.	.	.	.	16c/Jk	.	.	.	.	.	.	.	.
!	!	!	!	!	!LO:N:vis=4	!	!	!	!	!	!	!	!
!	!	!	!	!	!LO:SIC:o:s=:v:kreska taktowa podwójna	!	!	!	!	!	!	!	!
.	.	.	.	.	8qqB-/	.	.	.	.	.	.	.	.
.	.	.	.	.	8A/	.	.	.	8r	.	.	.	.
=90	=90	=90	=90	=90	=90	=90	=90	=90	=90	=90	=90	=90	=90
!	!	!LO:DY:a	!LO:TX:a:t=Da Capo	!	!LO:TX:a:t=Da Capo	!	!LO:N:vis=00	!	!	!	!	!	!
16r	.	f	4.ryy	.	4.ryy	.	4.ryy	4.ryy	1.r	.	4.a\	.	4.cc\
16FF/LL	.	.	.	.	.	.	.	.	.	.	.	.	.
16AA/	.	.	.	.	.	.	.	.	.	.	.	.	.
16C/	.	.	.	.	.	.	.	.	.	.	.	.	.
16F/	.	.	.	.	.	.	.	.	.	.	.	.	.
16A/JJ	.	.	.	.	.	.	.	.	.	.	.	.	.
!LO:PB:g=original	!	!	!	!	!	!	!	!	!	!	!	!	!
=91	=91	=91	=91	=91	=91	=91	=91	=91	=91	=91	=91	=91	=91
!LO:TX:a:t=P:problem=mixed beam	!	!	!	!	!	!	!	!	!	!	!	!	!LO:TX:a:B:t=t
16c\LL	7	.	4.ryy	.	4.ryy	.	4.ryy	4.ryy	.	.	4.g\	.	4.b-\
16CC/	.	.	.	.	.	.	.	.	.	.	.	.	.
16EE/	.	.	.	.	.	.	.	.	.	.	.	.	.
16GG/	.	.	.	.	.	.	.	.	.	.	.	.	.
16C/	.	.	.	.	.	.	.	.	.	.	.	.	.
16E/JJ	.	.	.	.	.	.	.	.	.	.	.	.	.
=92	=92	=92	=92	=92	=92	=92	=92	=92	=92	=92	=92	=92	=92
4F\	3	.	4.ryy	.	4.ryy	.	4.ryy	4.ryy	.	.	8f\	.	8a\
.	.	.	.	.	.	.	.	.	.	.	8r	.	8r
8r	.	.	.	.	.	.	.	.	.	.	8r	.	8r
=93	=93	=93	=93	=93	=93	=93	=93	=93	=93	=93	=93	=93	=93
!LO:TX:a:t=P:problem=mixed beam	!	!	!	!	!	!	!	!	!	!	!	!	!
8B-\L	.	.	4.ryy	.	4.ryy	.	4.ryy	4.ryy	.	.	4.r	.	4.r
8c\	6 4	.	.	.	.	.	.	.	.	.	.	.	.
8C/J	5 3	.	.	.	.	.	.	.	.	.	.	.	.
=94	=94	=94	=94	=94	=94	=94	=94	=94	=94	=94	=94	=94	=94
!LO:TX:a:t=P:problem=mixed beam	!	!	!	!	!	!	!	!LO:N:vis=00	!	!	!	!	!
16F\LL	3_	.	4.ryy	.	4.ryy	.	4.ryy	4.ryy	1.r	.	16r	.	16r
16FF/	.	.	.	.	.	.	.	.	.	.	16f\	.	16a\
16AA/	x	.	.	.	.	.	.	.	.	.	16a\LL	.	16cc\LL
!	!	!	!	!	!	!	!	!	!	!	!LO:SIC:o:s=:v:niejednoznaczny zapis łuku	!	!LO:SIC:o:s=:v:niejednoznaczny zapis łuku
16C/	.	.	.	.	.	.	.	.	.	.	(16f\	.	(16a\
16F/	.	.	.	.	.	.	.	.	.	.	16a\	.	16cc\)
16A/JJ	.	.	.	.	.	.	.	.	.	.	16f\JJ)	.	16a\JJ
=95	=95	=95	=95	=95	=95	=95	=95	=95	=95	=95	=95	=95	=95
!LO:TX:a:t=P:problem=mixed beam	!	!	!	!	!	!	!	!	!	!	!	!	!
16c\LL	7_	.	4.ryy	.	4.ryy	.	4.ryy	4.ryy	.	.	16r	.	16r
16CC/	.	.	.	.	.	.	.	.	.	.	16c/	.	16g\
16EE/	x	.	.	.	.	.	.	.	.	.	16g\LL	.	16b-\LL
!	!	!	!	!	!	!	!	!	!	!	!LO:SIC:o:s=:v:niejednoznaczny zapis łuku	!	!LO:SIC:o:s=:v:niejednoznaczny zapis łuku
16GG/	.	.	.	.	.	.	.	.	.	.	(16c\	.	(16g\
16C/	.	.	.	.	.	.	.	.	.	.	16g\)	.	16b-\)
16E/JJ	.	.	.	.	.	.	.	.	.	.	16c\JJ	.	16g\JJ
!	!	!	!	!	!	!	!	!	!	!	!	!	!LO:LB:g=original
=96	=96	=96	=96	=96	=96	=96	=96	=96	=96	=96	=96	=96	=96
!LO:TX:a:t=P:problem=mixed beam	!	!	!	!	!	!	!	!	!	!	!	!	!
8F\L	.	.	4.ryy	.	4.ryy	.	4.ryy	4.ryy	.	.	8f\	.	8a\
8r	.	.	.	.	.	.	.	.	.	.	8r	.	8r
!	!	!	!	!	!	!	!	!	!	!	!LO:SIC:o:s=:v:do końca systemu pogrubione drugie pole	!	!
8FF/J	.	.	.	.	.	.	.	.	.	.	8f\	.	8a\
!	!	!	!	!	!	!	!	!	!	!	!LO:LB:g=original	!	!
=97	=97	=97	=97	=97	=97	=97	=97	=97	=97	=97	=97	=97	=97
!LO:TX:a:t=P:problem=mixed beam	!	!	!	!	!	!	!	!	!	!	!	!	!
16C/LL	6 4	.	4.ryy	.	4.ryy	.	4.ryy	4.ryy	.	.	8f\L	.	8a\L
16c\	- 3	.	.	.	.	.	.	.	.	.	.	.	.
16B-\	.	.	.	.	.	.	.	.	.	.	8c\J	.	8g\J
16A\	.	.	.	.	.	.	.	.	.	.	.	.	.
16G\	.	.	.	.	.	.	.	.	.	.	8r	.	8r
16G\JJ	.	.	.	.	.	.	.	.	.	.	.	.	.
=98	=98	=98	=98	=98	=98	=98	=98	=98	=98	=98	=98	=98	=98
!	!	!	!	!	!	!	!	!	!LO:N:vis=00	!	!LO:N:vis=00	!	!LO:N:vis=00
8F#X\L	-7	.	4.ryy	.	4.ryy	.	4.ryy	4.ryy	1.r	.	1.r	.	1.r
8G\	3	.	.	.	.	.	.	.	.	.	.	.	.
8A\J	6\	.	.	.	.	.	.	.	.	.	.	.	.
=99	=99	=99	=99	=99	=99	=99	=99	=99	=99	=99	=99	=99	=99
8B-\L	6	.	4.ryy	.	4.ryy	.	4.ryy	4.ryy	.	.	.	.	.
8A\	6	.	.	.	.	.	.	.	.	.	.	.	.
8G\J	.	.	.	.	.	.	.	.	.	.	.	.	.
=100	=100	=100	=100	=100	=100	=100	=100	=100	=100	=100	=100	=100	=100
8E\L	7	.	4.ryy	.	4.ryy	.	4.ryy	4.ryy	.	.	.	.	.
8Fn\	5	.	.	.	.	.	.	.	.	.	.	.	.
8G\J	6	.	.	.	.	.	.	.	.	.	.	.	.
!LO:LB:g=original	!	!	!	!	!	!	!	!	!	!	!	!	!
=101	=101	=101	=101	=101	=101	=101	=101	=101	=101	=101	=101	=101	=101
8A\L	6	.	4.ryy	.	4.ryy	.	4.ryy	4.ryy	.	.	.	.	.
8G\	6	.	.	.	.	.	.	.	.	.	.	.	.
8F\J	.	.	.	.	.	.	.	.	.	.	.	.	.
=102	=102	=102	=102	=102	=102	=102	=102	=102	=102	=102	=102	=102	=102
*	*	*	*	*	*	*	*	*	*	*	*	*	*Xtuplet
!	!	!	!	!	!	!	!	!	!LO:N:vis=00	!	!	!	!LO:TUP:a:problem=klamra łukowa bez numeru
16r	.	.	4.ryy	.	4.ryy	.	4.ryy	4.ryy	1.r	.	24c\LL	.	24g\LL
.	.	.	.	.	.	.	.	.	.	.	24f\	.	24a\
16CC/LL	7_	.	.	.	.	.	.	.	.	.	.	.	.
.	.	.	.	.	.	.	.	.	.	.	24g\JJ	.	24b-\JJ
!	!	!	!	!	!	!	!	!	!	!	!LO:TX:a:B:t=t	!	!LO:TX:a:B:t=t
16EE/	x	.	.	.	.	.	.	.	.	.	4g\	.	4b-\
16GG/	.	.	.	.	.	.	.	.	.	.	.	.	.
16C/	.	.	.	.	.	.	.	.	.	.	.	.	.
16E/JJ	.	.	.	.	.	.	.	.	.	.	.	.	.
=103	=103	=103	=103	=103	=103	=103	=103	=103	=103	=103	=103	=103	=103
4F\	3	.	4.ryy	.	4.ryy	.	4.ryy	4.ryy	.	.	8f\	.	8a\
.	.	.	.	.	.	.	.	.	.	.	8r	.	8r
8r	.	.	.	.	.	.	.	.	.	.	8r	.	8r
=104	=104	=104	=104	=104	=104	=104	=104	=104	=104	=104	=104	=104	=104
16r	.	.	4.ryy	.	4.ryy	.	4.ryy	4.ryy	.	.	8c/	.	8g\
16C\LL	7 3	.	.	.	.	.	.	.	.	.	.	.	.
16D\	x 3	.	.	.	.	.	.	.	.	.	8r	.	8r
16C\	x 3	.	.	.	.	.	.	.	.	.	.	.	.
16D\	x 3	.	.	.	.	.	.	.	.	.	8r	.	8r
.	7	.	.	.	.	.	.	.	.	.	.	.	.
16E\JJ	x 3	.	.	.	.	.	.	.	.	.	.	.	.
=105	=105	=105	=105	=105	=105	=105	=105	=105	=105	=105	=105	=105	=105
4F\	.	.	4.ryy	.	4.ryy	.	4.ryy	4.ryy	.	.	8f\	.	8a\
.	.	.	.	.	.	.	.	.	.	.	8r	.	8r
8r	.	.	.	.	.	.	.	.	.	.	8r	.	8r
=106	=106	=106	=106	=106	=106	=106	=106	=106	=106	=106	=106	=106	=106
!	!	!	!	!	!	!	!	!	!LO:N:vis=00	!	!	!	!
8B-\L	.	.	4.ryy	.	4.ryy	.	4.ryy	4.ryy	1.r	.	8f\	.	8f\
8B-\	.	.	.	.	.	.	.	.	.	.	8r	.	8r
8B-\J	.	.	.	.	.	.	.	.	.	.	8r	.	8r
=107	=107	=107	=107	=107	=107	=107	=107	=107	=107	=107	=107	=107	=107
8A\L	6	.	4.ryy	.	4.ryy	.	4.ryy	4.ryy	.	.	8r	.	8r
8A\	6	.	.	.	.	.	.	.	.	.	8r	.	8r
8G\J	.	.	.	.	.	.	.	.	.	.	8g\	.	8b-\
=108	=108	=108	=108	=108	=108	=108	=108	=108	=108	=108	=108	=108	=108
!LO:TX:a:t=P:problem=mixed beam	!	!	!	!	!	!	!	!	!	!	!	!	!
8F\L	.	.	4.ryy	.	4.ryy	.	4.ryy	4.ryy	.	.	8f\L	.	8a\
!	!	!	!	!	!	!	!	!	!	!	!	!	!LO:TX:a:B:t=t
8c\	4	.	.	.	.	.	.	.	.	.	8c\	.	4g\
.	3	.	.	.	.	.	.	.	.	.	.	.	.
8C/J	.	.	.	.	.	.	.	.	.	.	8c\J	.	.
=109	=109	=109	=109	=109	=109	=109	=109	=109	=109	=109	=109	=109	=109
4F\	.	.	4.ryy	.	4.ryy	.	4.ryy	4.ryy	.	.	8A/	.	8f\
.	.	.	.	.	.	.	.	.	.	.	4r	.	8r
8r	.	.	.	.	.	.	.	.	.	.	.	.	8r
=110	=110	=110	=110	=110	=110	=110	=110	=110	=110	=110	=110	=110	=110
!LO:TX:a:t=P:problem=mixed beam	!	!	!	!	!	!	!	!LO:N:vis=00	!	!	!	!	!
8B-\L	.	.	4.ryy	.	4.ryy	.	4.ryy	4.ryy	1.r	.	8b-\	.	8dd\
!	!	!	!	!	!	!	!	!	!	!	!	!	!LO:TX:a:B:t=t
8c\	6 4	.	.	.	.	.	.	.	.	.	4g\	.	4b-\
8C/J	5 3	.	.	.	.	.	.	.	.	.	.	.	.
=111	=111	=111	=111	=111	=111	=111	=111	=111	=111	=111	=111	=111	=111
8D/	.	.	4.ryy	.	4.ryy	.	4.ryy	4.ryy	.	.	8f\	.	8a\
8r	.	.	.	.	.	.	.	.	.	.	8r	.	8r
8r	.	.	.	.	.	.	.	.	.	.	8r	.	8r
!LO:LB:g=original	!	!	!	!	!	!	!	!	!	!	!	!	!LO:LB:g=original
=112	=112	=112	=112	=112	=112	=112	=112	=112	=112	=112	=112	=112	=112
8BB-/L	6	.	4.ryy	.	4.ryy	.	4.ryy	4.ryy	.	.	8a\L	.	8b-\
.	.	.	.	.	.	.	.	.	.	.	.	.	8qqa/
8C/	6 4	.	.	.	.	.	.	.	.	.	8f\	.	4g\
8CC/J	5 3	.	.	.	.	.	.	.	.	.	8c\J	.	.
=113	=113	=113	=113	=113	=113	=113	=113	=113	=113	=113	=113	=113	=113
4.FF;/	.	.	4.ryy	.	4.ryy	.	4.ryy	4.ryy	.	.	4A/	.	4f\
.	.	.	.	.	.	.	.	.	.	.	8r	.	8ryy
!LO:SIC:o:s=:v:kreska taktowa podwójna	!	!	!	!	!	!	!	!	!LO:SIC:o:s=:v:kreska taktowa podwójna	!	!	!	!
!LO:TX:i:a:B:t=Osanna ut Supra ||	!	!	!LO:TX:i:a:B:t=Osanna ut Supra ||	!	!LO:SIC:o:s=:v:partia nie zawiera informacji o Osanna	!	!LO:TX:i:a:B:t=Osanna ut Supra	!LO:TX:i:a:B:t=Osanna ut Supra ||	!LO:TX:i:a:B:t=Osanna ut Supra ||	!	!	!	!LO:SIC:o:s=:v:niepełny takt
!	!	!	!	!	!	!	!	!	!	!	!LO:SIC:o:s=:v:kreska taktowa podwójna	!	!LO:SIC:o:s=:v:kreska taktowa podwójna
!	!	!	!	!	!	!	!	!	!	!	!LO:TX:i:b:B:t=Osanna ut Supra ||	!	!LO:TX:i:a:B:t=Osanna ut Supra
=||	=||	=||	=||	=||	=||	=||	=||	=||	=||	=||	=||	=||	=||
*-	*-	*-	*-	*-	*-	*-	*-	*-	*-	*-	*-	*-	*-
!!!system-decoration: [(s1,s2)][(s3,s4,s5)][(s6,s7)]s8
!!!RDF**kern: > = above
!!!RDF**kern: < = below
!!!EED: Leszek Kubiak
!!!EEV: 2020-10-06
!!!ENC: Andrzej Kubiczek
!!!END: 2020-05-19
!!!YEC: Copyright 2022 Narodowy Instytut Fryderyka Chopina (https://polishscores.org)
!!!YEM: License CC-BY-4.0 (https://creativecommons.org/licenses/by/4.0)
